X:13037
T:Mount Hills
R:March
C:Trad. Playford 1701
O:England
Z:Paul Hardy's Session Tunebook 2015 (see www.paulhardy.net). Creative Commons cc by-nc-sa licenced.
M:4/4
L:1/8
Q:1/4=140
K:G
"G" G2d2 B2B2|"D" ABAG F2D2|"G" G2d2 B2B2|"Am" d2cB A4|"G" G2d2 B2B2|"D" ABAG F2D2|"Am" E2E2 c2BA|"D" F4 "G"G4:|
|:"D"F3G A2B2|c2B2 A2GF|"C"G2E2 c2d2|"G"B4 "D"A4|"G"dedc B2B2|G2G2 "Em"E3B|"Am"c2BA "G"GFGA|"D"A4 "G"G4:|

